; G-Code generated by Simplify3D(R) Version 4.0.1
; Jul 8, 2020 at 10:16:58 AM
; Settings Summary
;   processName,Process1
;   applyToModels,喷嘴导风件右-2020,喷嘴导风件右-2020(2),喷嘴导风件右-2020(3),喷嘴导风件右-2020(4),喷嘴导风件右-2020(5),喷嘴导风件右-2020(6)
;   profileName,Ender 3 (modified)
;   profileVersion,2018-06-08 13:27:13
;   baseProfile,Creality CR-10 Mini
;   printMaterial,PLA
;   printQuality,Medium
;   printExtruders,
;   extruderName,Primary Extruder
;   extruderToolheadNumber,0
;   extruderDiameter,0.4
;   extruderAutoWidth,1
;   extruderWidth,0.48
;   extrusionMultiplier,1
;   extruderUseRetract,1
;   extruderRetractionDistance,10
;   extruderExtraRestartDistance,0
;   extruderRetractionZLift,0
;   extruderRetractionSpeed,6000
;   extruderUseCoasting,0
;   extruderCoastingDistance,0.5
;   extruderUseWipe,0
;   extruderWipeDistance,6
;   primaryExtruder,0
;   layerHeight,0.15
;   topSolidLayers,4
;   bottomSolidLayers,4
;   perimeterOutlines,3
;   printPerimetersInsideOut,1
;   startPointOption,3
;   startPointOriginX,125
;   startPointOriginY,125
;   sequentialIslands,0
;   spiralVaseMode,0
;   firstLayerHeightPercentage,95
;   firstLayerWidthPercentage,105
;   firstLayerUnderspeed,0.4
;   useRaft,0
;   raftExtruder,0
;   raftTopLayers,3
;   raftBaseLayers,2
;   raftOffset,3
;   raftSeparationDistance,0.14
;   raftTopInfill,100
;   aboveRaftSpeedMultiplier,0.3
;   useSkirt,1
;   skirtExtruder,0
;   skirtLayers,1
;   skirtOutlines,2
;   skirtOffset,4
;   usePrimePillar,0
;   primePillarExtruder,999
;   primePillarWidth,12
;   primePillarLocation,7
;   primePillarSpeedMultiplier,1
;   useOozeShield,0
;   oozeShieldExtruder,999
;   oozeShieldOffset,2
;   oozeShieldOutlines,1
;   oozeShieldSidewallShape,1
;   oozeShieldSidewallAngle,30
;   oozeShieldSpeedMultiplier,1
;   infillExtruder,0
;   internalInfillPattern,Rectilinear
;   externalInfillPattern,Rectilinear
;   infillPercentage,100
;   outlineOverlapPercentage,8
;   infillExtrusionWidthPercentage,100
;   minInfillLength,5
;   infillLayerInterval,1
;   internalInfillAngles,30,-60
;   overlapInternalInfillAngles,0
;   externalInfillAngles,45,-45
;   generateSupport,0
;   supportExtruder,0
;   supportInfillPercentage,8
;   supportExtraInflation,1
;   supportBaseLayers,2
;   denseSupportExtruder,0
;   denseSupportLayers,2
;   denseSupportInfillPercentage,8
;   supportLayerInterval,1
;   supportHorizontalPartOffset,0.3
;   supportUpperSeparationLayers,1
;   supportLowerSeparationLayers,1
;   supportType,0
;   supportGridSpacing,3
;   maxOverhangAngle,45
;   supportAngles,45
;   temperatureName,Primary Extruder,Heated Bed
;   temperatureNumber,0,0
;   temperatureSetpointCount,1,1
;   temperatureSetpointLayers,1,1
;   temperatureSetpointTemperatures,200,65
;   temperatureStabilizeAtStartup,1,1
;   temperatureHeatedBed,0,1
;   temperatureRelayBetweenLayers,0,0
;   temperatureRelayBetweenLoops,0,0
;   fanLayers,1,2
;   fanSpeeds,0,100
;   blipFanToFullPower,0
;   adjustSpeedForCooling,1
;   minSpeedLayerTime,15
;   minCoolingSpeedSlowdown,20
;   increaseFanForCooling,0
;   minFanLayerTime,45
;   maxCoolingFanSpeed,100
;   increaseFanForBridging,0
;   bridgingFanSpeed,100
;   use5D,1
;   relativeEdistances,0
;   allowEaxisZeroing,1
;   independentExtruderAxes,0
;   includeM10123,0
;   stickySupport,1
;   applyToolheadOffsets,0
;   gcodeXoffset,0
;   gcodeYoffset,0
;   gcodeZoffset,0
;   overrideMachineDefinition,1
;   machineTypeOverride,0
;   strokeXoverride,230
;   strokeYoverride,230
;   strokeZoverride,400
;   originOffsetXoverride,0
;   originOffsetYoverride,0
;   originOffsetZoverride,0
;   homeXdirOverride,-1
;   homeYdirOverride,-1
;   homeZdirOverride,-1
;   flipXoverride,1
;   flipYoverride,-1
;   flipZoverride,1
;   toolheadOffsets,0,0|0,0|0,0|0,0|0,0|0,0
;   overrideFirmwareConfiguration,1
;   firmwareTypeOverride,RepRap (Marlin/Repetier/Sprinter)
;   GPXconfigOverride,r2
;   baudRateOverride,115200
;   overridePrinterModels,1
;   printerModelsOverride
;   startingGcode,G28 ; home all axes,G1 Z5 F3000 ; lift,G1 X5 Y10 F1500 ; move to prime,G1 Z0.2 F3000 ; get ready to prime,G92 E0 ; reset extrusion distance,G1 Y80 E10 F600 ; prime nozzle,G1 Y100 F5000 ; quick wipe
;   layerChangeGcode,
;   retractionGcode,
;   toolChangeGcode,
;   endingGcode,G28 X0 ; home x axis,M106 S0 ; turn off cooling fan,M104 S0 ; turn off extruder,M140 S0 ; turn off bed,M84 ; disable motors
;   exportFileFormat,gcode
;   celebration,0
;   celebrationSong,Funky Town
;   postProcessing,
;   defaultSpeed,3000
;   outlineUnderspeed,0.4
;   solidInfillUnderspeed,0.8
;   supportUnderspeed,0.8
;   rapidXYspeed,4800
;   rapidZspeed,1002
;   minBridgingArea,50
;   bridgingExtraInflation,0
;   bridgingExtrusionMultiplier,1
;   bridgingSpeedMultiplier,1
;   useFixedBridgingAngle,0
;   fixedBridgingAngle,0
;   applyBridgingToPerimeters,0
;   filamentDiameters,1.75|1.75|1.75|1.75|1.75|1.75
;   filamentPricesPerKg,46|46|46|46|46|46
;   filamentDensities,1.25|1.25|1.25|1.25|1.25|1.25
;   useMinPrintHeight,0
;   minPrintHeight,0
;   useMaxPrintHeight,0
;   maxPrintHeight,0
;   useDiaphragm,0
;   diaphragmLayerInterval,20
;   robustSlicing,1
;   mergeAllIntoSolid,0
;   onlyRetractWhenCrossingOutline,1
;   retractBetweenLayers,1
;   useRetractionMinTravel,1
;   retractionMinTravel,1
;   retractWhileWiping,1
;   onlyWipeOutlines,1
;   avoidCrossingOutline,0
;   maxMovementDetourFactor,3
;   toolChangeRetractionDistance,12
;   toolChangeExtraRestartDistance,-0.5
;   toolChangeRetractionSpeed,600
;   externalThinWallType,0
;   internalThinWallType,2
;   thinWallAllowedOverlapPercentage,10
;   singleExtrusionMinLength,1
;   singleExtrusionMinPrintingWidthPercentage,50
;   singleExtrusionMaxPrintingWidthPercentage,200
;   singleExtrusionEndpointExtension,0.2
;   horizontalSizeCompensation,0
G90
M82
M106 S0
M140 S65
M190 S65
M104 S200 T0
M109 S200 T0
G28 ; home all axes
G1 Z5 F3000 ; lift
G1 X5 Y10 F1500 ; move to prime
G1 Z0.2 F3000 ; get ready to prime
G92 E0 ; reset extrusion distance
G1 Y80 E10 F600 ; prime nozzle
G1 Y100 F5000 ; quick wipe
G92 E0
G1 E-10.0000 F6000
G1 Z0.142 F1002
; process Process1
; layer 1, Z = 0.143
T0
; tool H0.150 W0.504
; skirt
G1 X70.004 Y78.269 F4800
G1 E0.0000 F1800
G92 E0
G1 X70.093 Y78.204 E0.0035 F1200
G1 X71.285 Y77.590 E0.0456
G1 X71.389 Y77.555 E0.0491
G1 X72.381 Y77.384 E0.0807
G1 X72.411 Y77.380 E0.0817
G1 X72.783 Y77.348 E0.0934
G1 X72.814 Y77.346 E0.0944
G1 X112.490 Y77.354 E1.3414
G1 X112.555 Y77.360 E1.3435
G1 X113.338 Y77.504 E1.3685
G1 X113.401 Y77.522 E1.3705
G1 X114.500 Y77.941 E1.4075
G1 X114.600 Y77.999 E1.4111
G1 X114.971 Y78.301 E1.4262
G1 X115.004 Y78.269 E1.4276
G1 X115.093 Y78.204 E1.4311
G1 X116.284 Y77.590 E1.4732
G1 X116.389 Y77.555 E1.4767
G1 X117.381 Y77.384 E1.5083
G1 X117.411 Y77.380 E1.5093
G1 X117.783 Y77.348 E1.5210
G1 X117.814 Y77.346 E1.5220
G1 X157.490 Y77.354 E2.7690
G1 X157.555 Y77.360 E2.7711
G1 X158.338 Y77.504 E2.7961
G1 X158.401 Y77.522 E2.7982
G1 X159.500 Y77.941 E2.8352
G1 X159.600 Y77.999 E2.8388
G1 X160.687 Y78.885 E2.8829
G1 X160.764 Y78.971 E2.8865
G1 X161.467 Y80.073 E2.9276
G1 X161.505 Y80.153 E2.9304
G1 X161.846 Y81.172 E2.9642
G1 X161.864 Y81.259 E2.9669
G1 X161.971 Y82.644 E3.0106
G1 X161.972 Y82.663 E3.0112
G1 X161.977 Y82.892 E3.0184
G1 X161.977 Y82.911 E3.0190
G1 X161.962 Y83.453 E3.0360
G1 X161.960 Y83.479 E3.0368
G1 X161.929 Y83.791 E3.0467
G1 X161.925 Y83.817 E3.0475
G1 X161.805 Y84.513 E3.0697
G1 X161.796 Y84.549 E3.0709
G1 X161.677 Y84.975 E3.0848
G1 X161.665 Y85.010 E3.0860
G1 X161.302 Y85.934 E3.1172
G1 X161.256 Y86.016 E3.1201
G1 X160.581 Y86.934 E3.1559
G1 X160.516 Y87.001 E3.1589
G1 X159.374 Y87.918 E3.2049
G1 X159.267 Y87.977 E3.2087
G1 X157.864 Y88.470 E3.2555
G1 X157.744 Y88.491 E3.2593
G1 X124.860 Y88.490 E4.2929
G1 X124.810 Y88.487 E4.2945
G1 X124.207 Y88.402 E4.3136
G1 X124.158 Y88.392 E4.3152
G1 X123.864 Y88.308 E4.3248
G1 X116.324 Y88.308 E4.5618
G1 X116.094 Y88.227 E4.5694
G1 X115.035 Y87.387 E4.6119
G1 X114.374 Y87.918 E4.6386
G1 X114.267 Y87.977 E4.6424
G1 X112.864 Y88.470 E4.6892
G1 X112.744 Y88.491 E4.6930
G1 X79.860 Y88.490 E5.7266
G1 X79.810 Y88.487 E5.7281
G1 X79.207 Y88.402 E5.7473
G1 X79.158 Y88.392 E5.7488
G1 X78.864 Y88.308 E5.7585
G1 X71.324 Y88.308 E5.9954
G1 X71.094 Y88.227 E6.0031
G1 X68.718 Y86.342 E6.0984
G1 X68.588 Y86.136 E6.1061
G1 X68.125 Y84.150 E6.1702
G1 X68.120 Y84.122 E6.1711
G1 X68.068 Y83.778 E6.1820
G1 X68.065 Y83.749 E6.1829
G1 X68.023 Y83.153 E6.2017
G1 X68.022 Y83.126 E6.2025
G1 X68.023 Y82.809 E6.2125
G1 X68.024 Y82.783 E6.2133
G1 X68.160 Y80.995 E6.2697
G1 X68.193 Y80.871 E6.2737
G1 X68.852 Y79.445 E6.3231
G1 X68.925 Y79.339 E6.3272
G1 X70.004 Y78.269 E6.3749
G1 X72.412 Y103.619 F4800
G92 E0
G1 X72.783 Y103.587 E0.0117 F1200
G1 X72.814 Y103.585 E0.0127
G1 X112.490 Y103.593 E1.2597
G1 X112.555 Y103.599 E1.2618
G1 X113.338 Y103.743 E1.2868
G1 X113.401 Y103.761 E1.2889
G1 X114.500 Y104.180 E1.3258
G1 X114.600 Y104.238 E1.3295
G1 X114.971 Y104.540 E1.3445
G1 X115.004 Y104.508 E1.3460
G1 X115.093 Y104.444 E1.3494
G1 X116.285 Y103.829 E1.3916
G1 X116.389 Y103.794 E1.3950
G1 X117.381 Y103.623 E1.4267
G1 X117.412 Y103.619 E1.4276
G1 X117.783 Y103.587 E1.4394
G1 X117.814 Y103.585 E1.4403
G1 X157.490 Y103.593 E2.6874
G1 X157.555 Y103.599 E2.6894
G1 X158.338 Y103.743 E2.7145
G1 X158.401 Y103.761 E2.7165
G1 X159.500 Y104.180 E2.7535
G1 X159.600 Y104.238 E2.7571
G1 X160.688 Y105.124 E2.8012
G1 X160.765 Y105.210 E2.8049
G1 X161.468 Y106.313 E2.8459
G1 X161.506 Y106.393 E2.8487
G1 X161.846 Y107.412 E2.8825
G1 X161.864 Y107.498 E2.8853
G1 X161.971 Y108.883 E2.9289
G1 X161.972 Y108.902 E2.9295
G1 X161.977 Y109.131 E2.9367
G1 X161.977 Y109.150 E2.9373
G1 X161.962 Y109.692 E2.9544
G1 X161.960 Y109.718 E2.9552
G1 X161.929 Y110.030 E2.9650
G1 X161.925 Y110.056 E2.9659
G1 X161.805 Y110.752 E2.9881
G1 X161.796 Y110.788 E2.9892
G1 X161.677 Y111.214 E3.0031
G1 X161.665 Y111.248 E3.0043
G1 X161.302 Y112.173 E3.0355
G1 X161.256 Y112.255 E3.0385
G1 X160.580 Y113.173 E3.0743
G1 X160.516 Y113.241 E3.0772
G1 X159.373 Y114.157 E3.1233
G1 X159.267 Y114.216 E3.1271
G1 X157.864 Y114.709 E3.1738
G1 X157.743 Y114.730 E3.1777
G1 X124.860 Y114.729 E4.2112
G1 X124.810 Y114.726 E4.2128
G1 X124.207 Y114.641 E4.2319
G1 X124.158 Y114.631 E4.2335
G1 X123.864 Y114.547 E4.2431
G1 X116.324 Y114.547 E4.4801
G1 X116.094 Y114.466 E4.4878
G1 X115.035 Y113.626 E4.5303
G1 X114.373 Y114.157 E4.5569
G1 X114.267 Y114.216 E4.5607
G1 X112.864 Y114.709 E4.6075
G1 X112.744 Y114.730 E4.6113
G1 X79.860 Y114.729 E5.6449
G1 X79.810 Y114.726 E5.6465
G1 X79.207 Y114.641 E5.6656
G1 X79.158 Y114.631 E5.6672
G1 X78.864 Y114.547 E5.6768
G1 X71.324 Y114.547 E5.9138
G1 X71.094 Y114.466 E5.9214
G1 X68.718 Y112.581 E6.0167
G1 X68.588 Y112.375 E6.0244
G1 X68.125 Y110.389 E6.0885
G1 X68.120 Y110.361 E6.0894
G1 X68.068 Y110.017 E6.1003
G1 X68.065 Y109.988 E6.1012
G1 X68.023 Y109.392 E6.1200
G1 X68.022 Y109.366 E6.1209
G1 X68.023 Y109.048 E6.1308
G1 X68.024 Y109.022 E6.1317
G1 X68.160 Y107.235 E6.1880
G1 X68.193 Y107.110 E6.1921
G1 X68.851 Y105.684 E6.2414
G1 X68.925 Y105.579 E6.2455
G1 X70.004 Y104.508 E6.2932
G1 X70.093 Y104.444 E6.2967
G1 X71.285 Y103.829 E6.3388
G1 X71.389 Y103.794 E6.3423
G1 X72.381 Y103.623 E6.3739
G1 X72.412 Y103.619 E6.3749
G1 X72.814 Y129.825 F4800
G92 E0
G1 X112.490 Y129.832 E1.2470 F1200
G1 X112.555 Y129.838 E1.2491
G1 X113.338 Y129.982 E1.2741
G1 X113.401 Y130.000 E1.2762
G1 X114.500 Y130.419 E1.3132
G1 X114.600 Y130.477 E1.3168
G1 X114.971 Y130.779 E1.3318
G1 X115.004 Y130.747 E1.3333
G1 X115.093 Y130.683 E1.3367
G1 X116.284 Y130.068 E1.3789
G1 X116.389 Y130.033 E1.3823
G1 X117.381 Y129.862 E1.4140
G1 X117.411 Y129.858 E1.4149
G1 X117.783 Y129.826 E1.4267
G1 X117.814 Y129.825 E1.4276
G1 X157.490 Y129.832 E2.6747
G1 X157.555 Y129.838 E2.6767
G1 X158.338 Y129.982 E2.7018
G1 X158.401 Y130.000 E2.7038
G1 X159.500 Y130.419 E2.7408
G1 X159.600 Y130.477 E2.7444
G1 X160.688 Y131.363 E2.7885
G1 X160.764 Y131.449 E2.7921
G1 X161.467 Y132.552 E2.8332
G1 X161.506 Y132.631 E2.8360
G1 X161.846 Y133.651 E2.8698
G1 X161.864 Y133.737 E2.8726
G1 X161.971 Y135.122 E2.9162
G1 X161.972 Y135.141 E2.9168
G1 X161.977 Y135.370 E2.9240
G1 X161.977 Y135.389 E2.9246
G1 X161.962 Y135.931 E2.9417
G1 X161.960 Y135.957 E2.9425
G1 X161.929 Y136.269 E2.9523
G1 X161.925 Y136.295 E2.9532
G1 X161.805 Y136.991 E2.9754
G1 X161.796 Y137.027 E2.9765
G1 X161.677 Y137.453 E2.9904
G1 X161.665 Y137.488 E2.9916
G1 X161.302 Y138.412 E3.0228
G1 X161.256 Y138.494 E3.0258
G1 X160.581 Y139.412 E3.0616
G1 X160.516 Y139.479 E3.0645
G1 X159.374 Y140.396 E3.1105
G1 X159.267 Y140.455 E3.1144
G1 X157.864 Y140.948 E3.1611
G1 X157.744 Y140.969 E3.1650
G1 X124.860 Y140.968 E4.1985
G1 X124.810 Y140.965 E4.2001
G1 X124.207 Y140.880 E4.2192
G1 X124.158 Y140.870 E4.2208
G1 X123.864 Y140.786 E4.2304
G1 X116.324 Y140.786 E4.4674
G1 X116.094 Y140.706 E4.4751
G1 X115.035 Y139.865 E4.5176
G1 X114.373 Y140.396 E4.5442
G1 X114.267 Y140.455 E4.5480
G1 X112.864 Y140.948 E4.5948
G1 X112.744 Y140.969 E4.5986
G1 X79.860 Y140.968 E5.6322
G1 X79.810 Y140.965 E5.6338
G1 X79.207 Y140.880 E5.6529
G1 X79.158 Y140.870 E5.6545
G1 X78.864 Y140.786 E5.6641
G1 X71.324 Y140.786 E5.9011
G1 X71.094 Y140.706 E5.9087
G1 X68.718 Y138.820 E6.0041
G1 X68.588 Y138.614 E6.0117
G1 X68.125 Y136.628 E6.0758
G1 X68.120 Y136.600 E6.0767
G1 X68.068 Y136.256 E6.0876
G1 X68.065 Y136.228 E6.0885
G1 X68.023 Y135.631 E6.1073
G1 X68.022 Y135.605 E6.1082
G1 X68.023 Y135.287 E6.1181
G1 X68.024 Y135.261 E6.1190
G1 X68.160 Y133.474 E6.1753
G1 X68.193 Y133.349 E6.1794
G1 X68.851 Y131.923 E6.2287
G1 X68.925 Y131.818 E6.2328
G1 X70.004 Y130.747 E6.2805
G1 X70.093 Y130.683 E6.2840
G1 X71.284 Y130.068 E6.3261
G1 X71.389 Y130.033 E6.3296
G1 X72.381 Y129.862 E6.3612
G1 X72.411 Y129.858 E6.3622
G1 X72.783 Y129.826 E6.3739
G1 X72.814 Y129.825 E6.3749
G1 X72.824 Y130.305 F4800
G92 E0
G1 X112.468 Y130.312 E1.2460 F1200
G1 X112.489 Y130.314 E1.2467
G1 X113.229 Y130.450 E1.2704
G1 X113.250 Y130.456 E1.2710
G1 X114.293 Y130.854 E1.3061
G1 X114.326 Y130.873 E1.3073
G1 X115.003 Y131.424 E1.3348
G1 X115.316 Y131.114 E1.3486
G1 X115.346 Y131.092 E1.3498
G1 X116.472 Y130.511 E1.3896
G1 X116.507 Y130.500 E1.3908
G1 X117.452 Y130.336 E1.4209
G1 X117.463 Y130.335 E1.4212
G1 X117.814 Y130.305 E1.4323
G1 X117.824 Y130.305 E1.4327
G1 X157.468 Y130.312 E2.6787
G1 X157.489 Y130.314 E2.6794
G1 X158.229 Y130.450 E2.7030
G1 X158.250 Y130.456 E2.7037
G1 X159.293 Y130.854 E2.7388
G1 X159.326 Y130.873 E2.7400
G1 X160.355 Y131.711 E2.7817
G1 X160.380 Y131.740 E2.7829
G1 X161.047 Y132.785 E2.8218
G1 X161.060 Y132.811 E2.8228
G1 X161.381 Y133.775 E2.8547
G1 X161.387 Y133.804 E2.8556
G1 X161.492 Y135.152 E2.8981
G1 X161.492 Y135.159 E2.8983
G1 X161.497 Y135.375 E2.9052
G1 X161.497 Y135.382 E2.9054
G1 X161.482 Y135.909 E2.9219
G1 X161.482 Y135.917 E2.9222
G1 X161.452 Y136.213 E2.9315
G1 X161.451 Y136.221 E2.9318
G1 X161.334 Y136.897 E2.9534
G1 X161.331 Y136.909 E2.9537
G1 X161.218 Y137.312 E2.9669
G1 X161.214 Y137.323 E2.9673
G1 X160.866 Y138.207 E2.9971
G1 X160.851 Y138.235 E2.9981
G1 X160.213 Y139.102 E3.0320
G1 X160.191 Y139.125 E3.0329
G1 X159.105 Y139.996 E3.0767
G1 X159.069 Y140.016 E3.0780
G1 X157.743 Y140.482 E3.1222
G1 X157.703 Y140.489 E3.1235
G1 X124.876 Y140.488 E4.1552
G1 X124.860 Y140.487 E4.1558
G1 X124.290 Y140.407 E4.1738
G1 X124.274 Y140.404 E4.1744
G1 X123.931 Y140.306 E4.1856
G1 X116.405 Y140.306 E4.4221
G1 X116.329 Y140.279 E4.4247
G1 X115.033 Y139.251 E4.4766
G1 X114.105 Y139.996 E4.5140
G1 X114.069 Y140.016 E4.5153
G1 X112.743 Y140.482 E4.5595
G1 X112.703 Y140.489 E4.5608
G1 X79.876 Y140.488 E5.5926
G1 X79.860 Y140.487 E5.5931
G1 X79.290 Y140.407 E5.6112
G1 X79.274 Y140.404 E5.6117
G1 X78.931 Y140.306 E5.6229
G1 X71.405 Y140.306 E5.8594
G1 X71.329 Y140.279 E5.8620
G1 X69.080 Y138.495 E5.9522
G1 X69.037 Y138.426 E5.9547
G1 X68.595 Y136.529 E6.0160
G1 X68.593 Y136.519 E6.0163
G1 X68.544 Y136.194 E6.0266
G1 X68.543 Y136.185 E6.0269
G1 X68.503 Y135.606 E6.0451
G1 X68.502 Y135.598 E6.0454
G1 X68.503 Y135.298 E6.0548
